X: 410
T:Regretz sans fin
N: Derived from Jos3009-Regretz_sans_fin.krn
C: Josquin des Prez
%%abc-version 2.0
%%abcx-abcm2ps-target-version 5.9.1 (29 Sep 2008)
%%abc-creator hum2abc beta
%%abcx-conversion-date 2019/02/12 16:15:55
%%abc-edited-by Jesse Rodin
%%abc-edited-by Will Watson 08/09/2011
%%abcx-initial-encoding-date 2011/09/08/
%%humdrum-veritas 1322888365
%%humdrum-veritas-data 2207757263
%%linebreak <none>
%%barnumbers 0
L: 1/4
M: 2/1
Q: 1/2=120
V: 1 clef=treble
V: 2 clef=treble-8
V: 3 clef=treble-8
V: 4 clef=treble-8
V: 5 clef=bass
V: 6 clef=bass
K: C
[V:1] A4A4 | 
[V:2] z8 | 
[V:3] d4d4 | 
[V:4] z8 | 
[V:5] A,8 | 
[V:6] D,4D,4 | 
[V:1] A8 | 
[V:2] z8 | 
[V:3] c6BA | 
[V:4] z8 | 
[V:5] A,4C4- | 
[V:6] F,8 | 
[V:1] G8 | 
[V:2] z8 | 
[V:3] e8 | 
[V:4] z8 | 
[V:5] C4B,4 | 
[V:6] E,8 | 
[V:1] z8 | 
[V:2] d8 | 
[V:3] A8 | 
[V:4] D4D4 | 
[V:5] z8 | 
[V:6] z4D,4 | 
[V:1] A8 | 
[V:2] d4f4- | 
[V:3] A4d4- | 
[V:4] F6ED | 
[V:5] z8 | 
[V:6] D,8 | 
[V:1] A4c4 | 
[V:2] f4e4 | 
[V:3] d4c4 | 
[V:4] F3GA4 | 
[V:5] z8 | 
[V:6] D,4A,,4 | 
[V:1] B4B4 | 
[V:2] z8 | 
[V:3] z4d4 | 
[V:4] z8 | 
[V:5] G,4G,4 | 
[V:6] z8 | 
[V:1] B2B2c4- | 
[V:2] z8 | 
[V:3] e2d2c3B | 
[V:4] z8 | 
[V:5] G,4A,4- | 
[V:6] z8 | 
[V:1] c4A3B | 
[V:2] z8 | 
[V:3] cde4d2 | 
[V:4] z8 | 
[V:5] A,4F,4 | 
[V:6] z8 | 
[V:1] cdc4BA | 
[V:2] c4c4 | 
[V:3] e4A4 | 
[V:4] z2A4F2 | 
[V:5] E,4z4 | 
[V:6] A,,4F,4 | 
[V:1] G4F2DE | 
[V:2] c4d4- | 
[V:3] e2e2f4- | 
[V:4] G4A4 | 
[V:5] z8 | 
[V:6] E,4D,4- | 
[V:1] FGA4^G2 | 
[V:2] d4B4 | 
[V:3] f4e4 | 
[V:4] A4E4 | 
[V:5] z8 | 
[V:6] D,4E,4 | 
[V:1] A4z2A2 | 
[V:2] A4z4 | 
[V:3] c2A2d4 | 
[V:4] z8 | 
[V:5] A,8 | 
[V:6] A,,2D,2D,4 | 
[V:1] A4A4 | 
[V:2] z8 | 
[V:3] c6BA | 
[V:4] z8 | 
[V:5] A,4C4- | 
[V:6] F,8 | 
[V:1] G8 | 
[V:2] z8 | 
[V:3] e8 | 
[V:4] z8 | 
[V:5] C4B,4 | 
[V:6] E,8 | 
[V:1] z8 | 
[V:2] d8 | 
[V:3] A8 | 
[V:4] D4D4 | 
[V:5] z8 | 
[V:6] z4D,4 | 
[V:1] A8 | 
[V:2] d4f4- | 
[V:3] A4d4- | 
[V:4] F6ED | 
[V:5] z8 | 
[V:6] D,8 | 
[V:1] A4c4 | 
[V:2] f4e4 | 
[V:3] d4c4 | 
[V:4] F3GA4 | 
[V:5] z8 | 
[V:6] D,4A,,4 | 
[V:1] B4z4 | 
[V:2] z8 | 
[V:3] z2d2f2f2 | 
[V:4] z2D2D2D2 | 
[V:5] B,4A,2A,2 | 
[V:6] G,,4D,2D,2 | 
[V:1] z8 | 
[V:2] z8 | 
[V:3] e4d4 | 
[V:4] E4F4 | 
[V:5] C3B,A,G,A,2- | 
[V:6] C,4D,4 | 
[V:1] z8 | 
[V:2] z8 | 
[V:3] c8 | 
[V:4] E8 | 
[V:5] A,2G,F,E,4 | 
[V:6] A,,8 | 
[V:1] z2G2_B2B2 | 
[V:2] e4d2d2 | 
[V:3] z2G2G2G2 | 
[V:4] z2C2G2G2 | 
[V:5] z8 | 
[V:6] z8 | 
[V:1] A4G2_B2- | 
[V:2] f3edcd2- | 
[V:3] A4_B3c | 
[V:4] F4G4 | 
[V:5] z8 | 
[V:6] z8 | 
[V:1] B2AGF4 | 
[V:2] d2c_BA4 | 
[V:3] d2d2d2d2 | 
[V:4] D8 | 
[V:5] z4A,4 | 
[V:6] z2D,2D,2D,2 | 
[V:1] z8 | 
[V:2] z8 | 
[V:3] c3AB4 | 
[V:4] z8 | 
[V:5] A,2A,2G,4 | 
[V:6] F,4E,4 | 
[V:1] z8 | 
[V:2] z8 | 
[V:3] A2c2c2c2 | 
[V:4] z8 | 
[V:5] A,4E,4 | 
[V:6] A,,4C,2C,2 | 
[V:1] z8 | 
[V:2] z4d4 | 
[V:3] B2GABcB2 | 
[V:4] z8 | 
[V:5] G,4G,2G,2 | 
[V:6] G,,4G,,A,,B,,C, | 
[V:1] z8 | 
[V:2] d2d2^c4 | 
[V:3] A2G2A4 | 
[V:4] z8 | 
[V:5] F,2E,D,E,4 | 
[V:6] D,2B,,2A,,4 | 
[V:1] z2A2A2A2 | 
[V:2] d4A4 | 
[V:3] F8 | 
[V:4] D4F2F2 | 
[V:5] D,8 | 
[V:6] D,8 | 
[V:1] G2A2E2G2 | 
[V:2] c4c2c2 | 
[V:3] z4z2G2 | 
[V:4] E2F2C2C2 | 
[V:5] z8 | 
[V:6] z8 | 
[V:1] G2G2^FGAF | 
[V:2] B2AGA4 | 
[V:3] B2c2d4 | 
[V:4] G2E2D4 | 
[V:5] z8 | 
[V:6] z8 | 
[V:1] G8- | 
[V:2] G8 | 
[V:3] B2d2d2d2 | 
[V:4] G4z2G2 | 
[V:5] z4G,4 | 
[V:6] G,,4G,,2G,,2 | 
[V:1] G4z2G2 | 
[V:2] z8 | 
[V:3] e8- | 
[V:4] G2G2c4 | 
[V:5] G,4G,4 | 
[V:6] C,8 | 
[V:1] G2G2c4 | 
[V:2] z8 | 
[V:3] e8 | 
[V:4] C4C2C2 | 
[V:5] C6B,2 | 
[V:6] z8 | 
[V:1] c4z4 | 
[V:2] z4c4 | 
[V:3] z8 | 
[V:4] F2E2F2G2 | 
[V:5] A,2G,2F,2E,2 | 
[V:6] z8 | 
[V:1] A4c2c2 | 
[V:2] c4c4 | 
[V:3] z4A4 | 
[V:4] A2A2A4 | 
[V:5] F,3D,E,4 | 
[V:6] A,,4A,,2A,,2 | 
[V:1] A3GABc2 | 
[V:2] f6e2 | 
[V:3] A2A2(3F3GA2 | 
[V:4] F8 | 
[V:5] D,8 | 
[V:6] D,6C,2 | 
[V:1] (3F3GA2D2A2- | 
[V:2] d2c2B2A2 | 
[V:3] (3D3EF2G2A2 | 
[V:4] z8 | 
[V:5] z8 | 
[V:6] B,,2A,,2G,,2F,,2 | 
[V:1] AGG4^F2 | 
[V:2] B3GA4 | 
[V:3] D2d3cA2 | 
[V:4] z8 | 
[V:5] z8 | 
[V:6] G,,4D,4 | 
[V:1] G8 | 
[V:2] G8 | 
[V:3] B8 | 
[V:4] z8 | 
[V:5] z8 | 
[V:6] G,,8 | 
[V:1] z8 | 
[V:2] z8 | 
[V:3] z2f2f2f2 | 
[V:4] z8 | 
[V:5] D,4A,4 | 
[V:6] D,4D,2D,2 | 
[V:1] z8 | 
[V:2] z8 | 
[V:3] e6dc | 
[V:4] c4c2c2 | 
[V:5] A,4G,4- | 
[V:6] C,6B,,A,, | 
[V:1] z2G4^F2 | 
[V:2] z8 | 
[V:3] d8 | 
[V:4] B2AGA4 | 
[V:5] G,2F,E,D,4 | 
[V:6] G,,4z4 | 
[V:1] G4z4 | 
[V:2] G4d4 | 
[V:3] z8 | 
[V:4] G2G2G2G2 | 
[V:5] z8 | 
[V:6] z8 | 
[V:1] z2A2A2A2 | 
[V:2] d4c4- | 
[V:3] z8 | 
[V:4] F3EFGAB | 
[V:5] z8 | 
[V:6] z8 | 
[V:1] G6FE | 
[V:2] c2BAG4 | 
[V:3] z8 | 
[V:4] c4B4 | 
[V:5] z4G,4 | 
[V:6] z4G,,4 | 
[V:1] F2E2F2F2 | 
[V:2] z8 | 
[V:3] z8 | 
[V:4] A4z4 | 
[V:5] A,2C2B,2A,2- | 
[V:6] D,2C,2D,4 | 
[V:1] FEDCDEFD | 
[V:2] z8 | 
[V:3] z2d2d2d2 | 
[V:4] z8 | 
[V:5] A,G,F,E,F,4 | 
[V:6] D,8 | 
[V:1] E4c4 | 
[V:2] z4c4 | 
[V:3] c6BA | 
[V:4] z4A4 | 
[V:5] E,8 | 
[V:6] A,,8 | 
[V:1] B2A2c2B2- | 
[V:2] d2f2e2d2- | 
[V:3] B2c2c2G2 | 
[V:4] G2C2G3A | 
[V:5] z8 | 
[V:6] z8 | 
[V:1] BAA4^G2 | 
[V:2] dcBAB4 | 
[V:3] d4e4 | 
[V:4] F4E4 | 
[V:5] z8 | 
[V:6] z4E,4 | 
[V:1] A8- | 
[V:2] A8- | 
[V:3] c2c2f2f2 | 
[V:4] A4z4 | 
[V:5] z4A,4 | 
[V:6] F,3E,D,2D,2 | 
[V:1] A8- | 
[V:2] A8- | 
[V:3] e3de2f2- | 
[V:4] A4c2c2 | 
[V:5] A,2C3B,A,2- | 
[V:6] A,,2A,,2A,,2A,,2 | 
[V:1] A8- | 
[V:2] A8- | 
[V:3] fedcdefd | 
[V:4] d4A3B | 
[V:5] A,G,F,E,F,4 | 
[V:6] D,4D,4 | 
[V:1] A8 ||  
[V:2] A8 ||  
[V:3] e8 ||  
[V:4] c8 ||  
[V:5] E,8 ||  
[V:6] A,,8 ||  
[V:1] [M:2/1]z8 | 
[V:2] [M:2/1]z8 | 
[V:3] [M:2/1]e4B3c | 
[V:4] [M:2/1]z8 | 
[V:5] [M:2/1]E,4G,4 | 
[V:6] [M:2/1]E,4E,4 | 
[V:1] z8 | 
[V:2] z8 | 
[V:3] d4e2B2 | 
[V:4] z8 | 
[V:5] F,4E,2G,2 | 
[V:6] D,3C,A,,2E,2 | 
[V:1] z8 | 
[V:2] z8 | 
[V:3] c2B2c4 | 
[V:4] z8 | 
[V:5] A,2G,2A,4 | 
[V:6] A,,2E,2A,,4 | 
[V:1] A4A4 | 
[V:2] A4c4 | 
[V:3] d4e4 | 
[V:4] z2D2A4 | 
[V:5] F,4E,4 | 
[V:6] D,4A,,4 | 
[V:1] G4A2E2 | 
[V:2] B4A2c2 | 
[V:3] z8 | 
[V:4] E4A,2A2 | 
[V:5] z8 | 
[V:6] z8 | 
[V:1] F2E2F4 | 
[V:2] d2c2d4 | 
[V:3] z8 | 
[V:4] D2A2D4 | 
[V:5] z8 | 
[V:6] z8 | 
[V:1] G4A4 | 
[V:2] B4A4 | 
[V:3] z4z2e2 | 
[V:4] E4A,4 | 
[V:5] z4E,4 | 
[V:6] z2E,4C,2 | 
[V:1] z8 | 
[V:2] z8 | 
[V:3] d4B4 | 
[V:4] z8 | 
[V:5] F,4G,4 | 
[V:6] D,4E,2E,2 | 
[V:1] z8 | 
[V:2] z8 | 
[V:3] c2B2c2B2 | 
[V:4] z8 | 
[V:5] A,2G,2A,2G,2 | 
[V:6] A,,2E,2A,,2E,2 | 
[V:1] z4z2A2 | 
[V:2] z4A4 | 
[V:3] c6BA | 
[V:4] z4F4 | 
[V:5] A,4F,4 | 
[V:6] A,,4z4 | 
[V:1] G4E4 | 
[V:2] B4c4 | 
[V:3] e8 | 
[V:4] G4A4 | 
[V:5] E,4z4 | 
[V:6] z8 | 
[V:1] F2E2F2E2 | 
[V:2] d2c2d2c2 | 
[V:3] z8 | 
[V:4] D2A2D2A2 | 
[V:5] z8 | 
[V:6] z8 | 
[V:1] F4G4 | 
[V:2] d4B4 | 
[V:3] z8 | 
[V:4] D4E4 | 
[V:5] z8 | 
[V:6] z8 | 
[V:1] A4z4 | 
[V:2] A4z4 | 
[V:3] z2A2B2c2 | 
[V:4] A,4z4 | 
[V:5] E,4F,2G,2 | 
[V:6] A,,4D,2C,2 | 
[V:1] z8 | 
[V:2] z8 | 
[V:3] d4e4 | 
[V:4] z8 | 
[V:5] A,4B,4 | 
[V:6] F,4E,4 | 
[V:1] z8 | 
[V:2] z8 | 
[V:3] f2f2f2e2- | 
[V:4] z8 | 
[V:5] C6B,2 | 
[V:6] A,6G,2 | 
[V:1] z2F2G2G2 | 
[V:2] A4B2c2 | 
[V:3] e2d3ce2 | 
[V:4] z2D2G2C2 | 
[V:5] A,2A,2G,4 | 
[V:6] D,2F,2E,4 | 
[V:1] FGABc4 | 
[V:2] d4e4 | 
[V:3] f2d4c2 | 
[V:4] FGA2A,2A2 | 
[V:5] A,8 | 
[V:6] D,4z4 | 
[V:1] A6G2 | 
[V:2] f6e2 | 
[V:3] d2A3Bc2 | 
[V:4] D2F3EC2 | 
[V:5] z8 | 
[V:6] z8 | 
[V:1] F2D2E4 | 
[V:2] d2d2^c4 | 
[V:3] F2G2A4 | 
[V:4] D2B,2A,4 | 
[V:5] z8 | 
[V:6] z8 | 
[V:1] A4A4 | 
[V:2] d8 | 
[V:3] D4d4 | 
[V:4] D4z4 | 
[V:5] A,8 | 
[V:6] D,4D,4 | 
[V:1] A8 | 
[V:2] z8 | 
[V:3] c6BA | 
[V:4] z8 | 
[V:5] A,4C4- | 
[V:6] F,8 | 
[V:1] G8 | 
[V:2] z8 | 
[V:3] e8 | 
[V:4] z8 | 
[V:5] C4B,4 | 
[V:6] E,8 | 
[V:1] z8 | 
[V:2] d8 | 
[V:3] A8 | 
[V:4] D4D4 | 
[V:5] z8 | 
[V:6] z4D,4 | 
[V:1] A8 | 
[V:2] d4f4- | 
[V:3] A4d4- | 
[V:4] F6ED | 
[V:5] z8 | 
[V:6] D,8 | 
[V:1] A4c4 | 
[V:2] f4e4 | 
[V:3] d4c4 | 
[V:4] F3GA4 | 
[V:5] z8 | 
[V:6] D,4A,,4 | 
[V:1] B4B4 | 
[V:2] z8 | 
[V:3] z4d4 | 
[V:4] z8 | 
[V:5] G,4G,4 | 
[V:6] z8 | 
[V:1] B2B2c4- | 
[V:2] z8 | 
[V:3] e2d2c3B | 
[V:4] z8 | 
[V:5] G,4A,4- | 
[V:6] z8 | 
[V:1] c4A3B | 
[V:2] z8 | 
[V:3] cde4d2 | 
[V:4] z8 | 
[V:5] A,4F,4 | 
[V:6] z8 | 
[V:1] cdc4BA | 
[V:2] c4c4 | 
[V:3] e4A4 | 
[V:4] z2A4F2 | 
[V:5] E,4z4 | 
[V:6] A,,4F,4 | 
[V:1] G4F2DE | 
[V:2] c4d4- | 
[V:3] e2e2f4- | 
[V:4] G4A4 | 
[V:5] z8 | 
[V:6] E,4D,4- | 
[V:1] FGA4^G2 | 
[V:2] d4B4 | 
[V:3] f4e4 | 
[V:4] A4E4 | 
[V:5] z8 | 
[V:6] D,4E,4 | 
[V:1] A6A2 | 
[V:2] A4z4 | 
[V:3] c2A2d4 | 
[V:4] z8 | 
[V:5] A,8 | 
[V:6] A,,2D,2D,4 | 
[V:1] A4A4 | 
[V:2] z8 | 
[V:3] c6BA | 
[V:4] z8 | 
[V:5] A,4C4- | 
[V:6] F,8 | 
[V:1] G8 | 
[V:2] z8 | 
[V:3] e8 | 
[V:4] z8 | 
[V:5] C4B,4 | 
[V:6] E,8 | 
[V:1] z8 | 
[V:2] d8 | 
[V:3] A8 | 
[V:4] D4D4 | 
[V:5] z8 | 
[V:6] z4D,4 | 
[V:1] A8 | 
[V:2] d4f4- | 
[V:3] A4d4- | 
[V:4] F6ED | 
[V:5] z8 | 
[V:6] D,8 | 
[V:1] A4c4 | 
[V:2] f4e4 | 
[V:3] d4c4 | 
[V:4] F3GA4 | 
[V:5] z8 | 
[V:6] D,4A,,4 | 
[V:1] B4z4 | 
[V:2] z8 | 
[V:3] z2d2f2f2 | 
[V:4] z2D2D2D2 | 
[V:5] B,4A,2A,2 | 
[V:6] G,,4D,2D,2 | 
[V:1] z8 | 
[V:2] z8 | 
[V:3] e4d4 | 
[V:4] E4F4 | 
[V:5] C3B,A,G,A,2- | 
[V:6] C,4D,4 | 
[V:1] z8 | 
[V:2] z8 | 
[V:3] c8 | 
[V:4] E8 | 
[V:5] A,2G,F,E,4 | 
[V:6] A,,8 | 
[V:1] z2G2_B2B2 | 
[V:2] e4d2d2 | 
[V:3] z2G2G2G2 | 
[V:4] z2C2G2G2 | 
[V:5] z8 | 
[V:6] z8 | 
[V:1] A4G2_B2- | 
[V:2] f3edcd2- | 
[V:3] A4_B3c | 
[V:4] F4G4 | 
[V:5] z8 | 
[V:6] z8 | 
[V:1] B2AGF4 | 
[V:2] d2c_BA4 | 
[V:3] d2d2d2d2 | 
[V:4] D8 | 
[V:5] z4A,4 | 
[V:6] z2D,2D,2D,2 | 
[V:1] z8 | 
[V:2] z8 | 
[V:3] c3AB4 | 
[V:4] z8 | 
[V:5] A,2A,2G,4 | 
[V:6] F,4E,4 | 
[V:1] z8 | 
[V:2] z8 | 
[V:3] A2c2c2c2 | 
[V:4] z8 | 
[V:5] A,4E,4 | 
[V:6] A,,4C,2C,2 | 
[V:1] z8 | 
[V:2] z4d4 | 
[V:3] B2GABcB2 | 
[V:4] z8 | 
[V:5] G,4G,2G,2 | 
[V:6] G,,4G,,A,,B,,C, | 
[V:1] z8 | 
[V:2] d2d2c4 | 
[V:3] A2G2A4 | 
[V:4] z8 | 
[V:5] F,2E,D,E,4 | 
[V:6] D,2B,,2A,,4 | 
[V:1] z2A2A2A2 | 
[V:2] d4A4 | 
[V:3] F8 | 
[V:4] D4F2F2 | 
[V:5] D,8 | 
[V:6] D,8 | 
[V:1] G2A2E2G2 | 
[V:2] c4c2c2 | 
[V:3] z4z2G2 | 
[V:4] E2F2C2C2 | 
[V:5] z8 | 
[V:6] z8 | 
[V:1] G2G2^FGAF | 
[V:2] B2AGA4 | 
[V:3] B2c2d4 | 
[V:4] G2E2D4 | 
[V:5] z8 | 
[V:6] z8 | 
[V:1] G8- | 
[V:2] G8 | 
[V:3] B2d2d2d2 | 
[V:4] G4z2G2 | 
[V:5] z4G,4 | 
[V:6] G,,4G,,2G,,2 | 
[V:1] G4z2G2 | 
[V:2] z8 | 
[V:3] e8- | 
[V:4] G2G2c4 | 
[V:5] G,4G,4 | 
[V:6] C,8 | 
[V:1] G2G2c4 | 
[V:2] z8 | 
[V:3] e8 | 
[V:4] C4C2C2 | 
[V:5] C6B,2 | 
[V:6] z8 | 
[V:1] c4z4 | 
[V:2] z4c4 | 
[V:3] z8 | 
[V:4] F2E2F2G2 | 
[V:5] A,2G,2F,2E,2 | 
[V:6] z8 | 
[V:1] A4c2c2 | 
[V:2] c4c4 | 
[V:3] z4A4 | 
[V:4] A2A2A4 | 
[V:5] F,3D,E,4 | 
[V:6] A,,4A,,2A,,2 | 
[V:1] A3GABc2 | 
[V:2] f6e2 | 
[V:3] A2A2(3F3GA2 | 
[V:4] F8 | 
[V:5] D,8 | 
[V:6] D,6C,2 | 
[V:1] (3F3GA2D2A2- | 
[V:2] d2c2B2A2 | 
[V:3] (3D3EF2G2A2 | 
[V:4] z8 | 
[V:5] z8 | 
[V:6] B,,2A,,2G,,2F,,2 | 
[V:1] AGG4^F2 | 
[V:2] B3GA4 | 
[V:3] D2d3cA2 | 
[V:4] z8 | 
[V:5] z8 | 
[V:6] G,,4D,4 | 
[V:1] G8 | 
[V:2] G8 | 
[V:3] B8 | 
[V:4] z8 | 
[V:5] z8 | 
[V:6] G,,8 | 
[V:1] z8 | 
[V:2] z8 | 
[V:3] z2f2f2f2 | 
[V:4] z8 | 
[V:5] D,4A,4 | 
[V:6] D,4D,2D,2 | 
[V:1] z8 | 
[V:2] z8 | 
[V:3] e6dc | 
[V:4] c4c2c2 | 
[V:5] A,4G,4- | 
[V:6] C,6B,,A,, | 
[V:1] z2G4^F2 | 
[V:2] z8 | 
[V:3] d8 | 
[V:4] B2AGA4 | 
[V:5] G,2F,E,D,4 | 
[V:6] G,,4z4 | 
[V:1] G4z4 | 
[V:2] G4d4 | 
[V:3] z8 | 
[V:4] G2G2G2G2 | 
[V:5] z8 | 
[V:6] z8 | 
[V:1] z2A2A2A2 | 
[V:2] d4c4- | 
[V:3] z8 | 
[V:4] F3EFGAB | 
[V:5] z8 | 
[V:6] z8 | 
[V:1] G6FE | 
[V:2] c2BAG4 | 
[V:3] z8 | 
[V:4] c4B4 | 
[V:5] z4G,4 | 
[V:6] z4G,,4 | 
[V:1] F2E2F2F2 | 
[V:2] z8 | 
[V:3] z8 | 
[V:4] A4z4 | 
[V:5] A,2C2B,2A,2- | 
[V:6] D,2C,2D,4 | 
[V:1] FEDCDEFD | 
[V:2] z8 | 
[V:3] z2d2d2d2 | 
[V:4] z8 | 
[V:5] A,G,F,E,F,4 | 
[V:6] D,8 | 
[V:1] E4c4 | 
[V:2] z4c4 | 
[V:3] c6BA | 
[V:4] z4A4 | 
[V:5] E,8 | 
[V:6] A,,8 | 
[V:1] B2A2c2B2- | 
[V:2] d2f2e2d2- | 
[V:3] B2c2c2G2 | 
[V:4] G2C2G3A | 
[V:5] z8 | 
[V:6] z8 | 
[V:1] BAA4^G2 | 
[V:2] dcBAB4 | 
[V:3] d4e4 | 
[V:4] F4E4 | 
[V:5] z8 | 
[V:6] z4E,4 | 
[V:1] A8- | 
[V:2] A8- | 
[V:3] c2c2f2f2 | 
[V:4] A4z4 | 
[V:5] z4A,4 | 
[V:6] F,3E,D,2D,2 | 
[V:1] A8- | 
[V:2] A8- | 
[V:3] e3de2f2- | 
[V:4] A4c2c2 | 
[V:5] A,2C3B,A,2- | 
[V:6] A,,2A,,2A,,2A,,2 | 
[V:1] A8- | 
[V:2] A8- | 
[V:3] fedcdefd | 
[V:4] d4A3B | 
[V:5] A,G,F,E,F,4 | 
[V:6] D,4D,4 | 
[V:1] A8 |]  
[V:2] A8 |]  
[V:3] e8 |]  
[V:4] c8 |]  
[V:5] E,8 |]  
[V:6] A,,8 |]  



